X:1
T:Title
%%score { ( 1 3 ) | ( 2 4 ) }
L:1/8
M:4/4
K:Ab
V:1 treble nm="Grand Piano"
V:3 treble 
V:2 bass 
V:4 bass 
V:1
 z4 z2[Q:1/4=100] [CE]2 | [Cc]3 [Cc] [CB][CA][_CA][CF] | [CE]4- [_G,CE]2[K:treble] [=G,DE]2 | %3
 [A,EA]3 [A,EA] [Ec]2 [CA]2 |[M:3/4] [=DB]4 z2 |[M:1/4] E2 |[M:4/4] [Ec]4[K:bass][K:treble] z4 | %7
 E6 A2 | A3 A c2 c2 |[M:3/4] B4 z2 |] %10
V:2
 z4 z2 [A,,E,]2 | [A,,E,]3 [A,,E,] [A,,E,][A,,E,][A,,=D,][A,,D,] | z2 F,2 =A,,2 B,,2 | %3
 C,3 C, [A,,A,]2 [F,A,]2 |[M:3/4] A,2 z2 [E,G,E]2 |[M:1/4] [E,G,]2 | %6
[M:4/4] .A,2 z [=A,,_G,] [B,,=G,][D,B,][C,A,][D,A,D] | [E,A,C]2 [D,G,]2 [C,_G,]2 .[D,F,A,]2 | %8
 [E,C]3 [E,C] [E,E]2 [E,F,E]2 |[M:3/4] E2 z2 [A,,A,]2 |] %10
V:3
 x8 | x8 | E,2 z2 z4[K:treble] | x8 |[M:3/4] z2 F,2 B2 |[M:1/4] x2 | %6
[M:4/4] z[K:bass] E,F,[K:treble][Ec] [Ed][EG][EA]F | z2 B,2 A,2 z D | x8 |[M:3/4] z2 D2 [CA]2 |] %10
V:4
 x8 | x8 | A,,4 z4 | x8 |[M:3/4] B,,4 z2 |[M:1/4] x2 |[M:4/4] A,,4 z4 | x8 | x8 | %9
[M:3/4] [E,G,]4 z2 |] %10

